packages/icon/src/svg/connection-warning.icon.svg

<svg width="24" height="24" viewBox="0 0 24 24" fill="none" xmlns="http://www.w3.org/2000/svg">
<path fill-rule="evenodd" clip-rule="evenodd" d="M22 5.5C22 7.43298 20.433 9 18.5 9C16.567 9 15 7.43298 15 5.5C15 3.56702 16.567 2 18.5 2C20.433 2 22 3.56702 22 5.5ZM18.5 10C19.187 10 19.8381 9.84607 20.4206 9.57074C20.6372 9.76294 20.8171 9.93445 20.9585 10.075C21.1675 10.2828 21.1273 10.6193 20.8862 10.7889L20.0556 11.3732C19.8517 11.5167 19.5733 11.4909 19.3905 11.3213C19.0404 10.9965 18.4045 10.4519 17.5409 9.89758C17.85 9.96466 18.1709 10 18.5 10ZM14.0675 6.28101C14.2408 7.27136 14.7379 8.15033 15.4457 8.80475C14.3177 8.34631 13.0093 8.01801 11.5752 8.01801C7.66405 8.01801 4.6389 10.4654 3.68993 11.3324C3.50548 11.5009 3.22655 11.5238 3.02391 11.3779L2.19945 10.7841C1.96068 10.6122 1.92357 10.2761 2.13377 10.0701C3.24352 8.98273 6.71483 6.01801 11.5752 6.01801C12.4546 6.01801 13.2871 6.11523 14.0675 6.28101ZM7.09349 14.968C6.9055 15.1257 6.63133 15.1458 6.43211 15.0024L5.60741 14.4085C5.36583 14.2345 5.33153 13.8937 5.55125 13.6928C6.42064 12.8978 8.65099 11.1633 11.5626 11.1633C14.4709 11.1633 16.6788 12.8992 17.5408 13.6978C17.7595 13.9006 17.722 14.2417 17.478 14.4133L16.6476 14.9976C16.4471 15.1387 16.1734 15.1158 15.9867 14.957C15.317 14.3875 13.6366 13.1633 11.5626 13.1633C9.48473 13.1633 7.77367 14.3973 7.09349 14.968ZM9.66844 18.3886C9.87169 18.535 10.1549 18.509 10.3656 18.3737C10.6317 18.2026 11.041 18.0137 11.5505 18.0137C12.0539 18.0137 12.4526 18.1955 12.7126 18.3624C12.9237 18.498 13.2075 18.5274 13.4126 18.3831L14.2588 17.7877C14.4931 17.6229 14.5361 17.2991 14.3226 17.1082C13.8351 16.6724 12.8784 16.0137 11.5505 16.0137C10.2213 16.0137 9.25914 16.6699 8.76878 17.103C8.55467 17.2922 8.59471 17.6154 8.82664 17.7825L9.66844 18.3886ZM12.5752 20.7848C12.5752 21.3371 12.1274 21.7848 11.5752 21.7848C11.0229 21.7848 10.5752 21.3371 10.5752 20.7848C10.5752 20.2325 11.0229 19.7848 11.5752 19.7848C12.1274 19.7848 12.5752 20.2325 12.5752 20.7848ZM18 3.75C18 3.61194 18.1119 3.5 18.25 3.5H18.75C18.888 3.5 19 3.61194 19 3.75V5.75C19 5.83514 18.9574 5.91034 18.8924 5.95551C18.852 5.98358 18.803 6 18.75 6H18.25C18.1119 6 18 5.88806 18 5.75V3.75ZM19.13 7.125C19.13 7.47015 18.8502 7.75 18.505 7.75C18.1598 7.75 17.88 7.47015 17.88 7.125C17.88 6.77985 18.1598 6.5 18.505 6.5C18.8502 6.5 19.13 6.77985 19.13 7.125Z" fill="white"/>
</svg>

<svg aria-label="connection warning icon" viewBox="0 0 24 24"><path fill-rule="evenodd" clip-rule="evenodd" d="M22 5.5a3.5 3.5 0 11-7 0 3.5 3.5 0 017 0zM18.5 10c.687 0 1.338-.154 1.92-.43.217.193.397.364.538.505a.465.465 0 01-.072.714l-.83.584a.532.532 0 01-.666-.052c-.35-.325-.986-.87-1.85-1.423.31.067.63.102.96.102zm-4.432-3.719c.173.99.67 1.87 1.378 2.524-1.128-.459-2.437-.787-3.87-.787-3.912 0-6.937 2.447-7.886 3.314a.53.53 0 01-.666.046l-.825-.594a.465.465 0 01-.065-.714c1.11-1.087 4.58-4.052 9.441-4.052.88 0 1.712.097 2.493.263zm-6.975 8.687a.542.542 0 01-.66.034l-.826-.594a.458.458 0 01-.056-.715c.87-.795 3.1-2.53 6.012-2.53 2.908 0 5.116 1.736 5.978 2.535a.458.458 0 01-.063.715l-.83.585a.543.543 0 01-.661-.041c-.67-.57-2.35-1.794-4.424-1.794-2.078 0-3.79 1.234-4.47 1.805zm2.575 3.42c.204.147.487.121.698-.014.266-.171.675-.36 1.184-.36.504 0 .903.181 1.163.348.21.136.495.165.7.021l.846-.595c.234-.165.277-.489.064-.68-.488-.436-1.445-1.094-2.773-1.094-1.329 0-2.29.656-2.781 1.089-.214.19-.174.512.058.68l.841.606zm2.907 2.397a1 1 0 11-2 0 1 1 0 012 0zM18 3.75a.25.25 0 01.25-.25h.5a.25.25 0 01.25.25v2a.25.25 0 01-.25.25h-.5a.25.25 0 01-.25-.25v-2zm1.13 3.375a.625.625 0 11-1.25 0 .625.625 0 011.25 0z"/></svg>
